Other-Icons/16x16-el_light/places/folder-meocloud.svg

<svg xmlns="http://www.w3.org/2000/svg" viewBox="0 0 16 16"><path d="M7.5 2A4.5 4.5 0 0 0 3 6.5a4.5 4.5 0 0 0 .053.656A3 3 0 0 0 1 10a3 3 0 0 0 3 3h7.5A3.5 3.5 0 0 0 15 9.5a3.5 3.5 0 0 0-3.03-3.465A4.5 4.5 0 0 0 7.5 2zm0 1A3.5 3.5 0 0 1 11 6.5a3.5 3.5 0 0 1-.05.564A2.5 2.5 0 0 1 11.5 7 2.5 2.5 0 0 1 14 9.5a2.5 2.5 0 0 1-2.5 2.5H4a2 2 0 0 1-2-2 2 2 0 0 1 2-2 2 2 0 0 1 .357.033A3.5 3.5 0 0 1 4 6.5 3.5 3.5 0 0 1 7.5 3z" fill="#6e6e6e" color="#4d4d4d"/></svg>

<?xml version="1.0" encoding="UTF-8" standalone="no"?>
<svg
   xmlns:dc="http://purl.org/dc/elements/1.1/"
   xmlns:cc="http://creativecommons.org/ns#"
   xmlns:rdf="http://www.w3.org/1999/02/22-rdf-syntax-ns#"
   xmlns:svg="http://www.w3.org/2000/svg"
   xmlns="http://www.w3.org/2000/svg"
   xmlns:sodipodi="http://sodipodi.sourceforge.net/DTD/sodipodi-0.dtd"
   xmlns:inkscape="http://www.inkscape.org/namespaces/inkscape"
   viewBox="0 0 16 16"
   version="1.1"
   id="svg5"
   sodipodi:docname="folder-meocloud.svg"
   inkscape:version="0.92.4 5da689c313, 2019-01-14">
  <metadata
     id="metadata9">
    <rdf:RDF>
      <cc:Work
         rdf:about="">
        <dc:format>image/svg+xml</dc:format>
        <dc:type
           rdf:resource="http://purl.org/dc/dcmitype/StillImage" />
      </cc:Work>
    </rdf:RDF>
  </metadata>
  <sodipodi:namedview
     pagecolor="#ffffff"
     bordercolor="#666666"
     borderopacity="1"
     objecttolerance="10"
     gridtolerance="10"
     guidetolerance="10"
     inkscape:pageopacity="0"
     inkscape:pageshadow="2"
     inkscape:window-width="640"
     inkscape:window-height="506"
     id="namedview7"
     showgrid="false"
     inkscape:zoom="14.75"
     inkscape:cx="8"
     inkscape:cy="8"
     inkscape:window-x="435"
     inkscape:window-y="188"
     inkscape:window-maximized="0"
     inkscape:current-layer="svg5" />
  <defs
     id="defs3051">
    <style
       type="text/css"
       id="current-color-scheme">
      .ColorScheme-Text {
        color:#4d4d4d;
      }
      </style>
  </defs>
  <path
     style="fill:#6e6e6e;fill-opacity:1;stroke:none"
     d="M 7.5 2 A 4.5 4.5 0 0 0 3 6.5 A 4.5 4.5 0 0 0 3.0527344 7.15625 A 3 3 0 0 0 1 10 A 3 3 0 0 0 4 13 L 11.5 13 A 3.5 3.5 0 0 0 15 9.5 A 3.5 3.5 0 0 0 11.970703 6.0351562 A 4.5 4.5 0 0 0 7.5 2 z M 7.5 3 A 3.5 3.5 0 0 1 11 6.5 A 3.5 3.5 0 0 1 10.949219 7.0644531 A 2.5 2.5 0 0 1 11.5 7 A 2.5 2.5 0 0 1 14 9.5 A 2.5 2.5 0 0 1 11.5 12 L 4 12 A 2 2 0 0 1 2 10 A 2 2 0 0 1 4 8 A 2 2 0 0 1 4.3574219 8.0332031 A 3.5 3.5 0 0 1 4 6.5 A 3.5 3.5 0 0 1 7.5 3 z "
     id="path4139"
     class="ColorScheme-Text" />
</svg>
